X:3/4
L:1/8
K:G
(3BAd ce|fe de/d|ee/d/ gB||2 AB/c/ BA||
|:GA BA|B/B/A F2 B|1 B2 AB/A/|1 BA/A/ AG:|2


*****************************


14800 0 0.72005045 

<star-2
2:13
|:FA|1 d>G A2:|2 FD A2 :|2 d>F A2:|
<end>
<start>
